images/portal/4141.svg

<?xml version="1.0" standalone="no"?><!DOCTYPE svg PUBLIC "-//W3C//DTD SVG 1.1//EN" "http://www.w3.org/Graphics/SVG/1.1/DTD/svg11.dtd"><svg xmlns:xlink="http://www.w3.org/1999/xlink" version="1.1" class="highcharts-root" style="font-family:Arial;font-size:12px;" xmlns="http://www.w3.org/2000/svg" width="485" height="415"><desc>Created with Highcharts 5.0.7</desc><defs><clipPath id="highcharts-fow7jlo-1"><rect x="0" y="0" width="252" height="323" fill="none"></rect></clipPath></defs><rect fill="#fbfbfb" class="highcharts-background" x="0" y="0" width="485" height="415" rx="0" ry="0"></rect><rect fill="none" class="highcharts-plot-background" x="53" y="41" width="252" height="323"></rect><g class="highcharts-grid highcharts-xaxis-grid "><path fill="none" class="highcharts-grid-line" d="M 102.5 41 L 102.5 364" opacity="1"></path><path fill="none" class="highcharts-grid-line" d="M 153.5 41 L 153.5 364" opacity="1"></path><path fill="none" class="highcharts-grid-line" d="M 203.5 41 L 203.5 364" opacity="1"></path><path fill="none" class="highcharts-grid-line" d="M 254.5 41 L 254.5 364" opacity="1"></path><path fill="none" class="highcharts-grid-line" d="M 304.5 41 L 304.5 364" opacity="1"></path><path fill="none" class="highcharts-grid-line" d="M 52.5 41 L 52.5 364" opacity="1"></path></g><g class="highcharts-grid highcharts-yaxis-grid "><path fill="none" stroke="#e6e6e6" stroke-width="1" class="highcharts-grid-line" d="M 53 364.5 L 305 364.5" opacity="1"></path><path fill="none" stroke="#e6e6e6" stroke-width="1" class="highcharts-grid-line" d="M 53 332.5 L 305 332.5" opacity="1"></path><path fill="none" stroke="#e6e6e6" stroke-width="1" class="highcharts-grid-line" d="M 53 299.5 L 305 299.5" opacity="1"></path><path fill="none" stroke="#e6e6e6" stroke-width="1" class="highcharts-grid-line" d="M 53 267.5 L 305 267.5" opacity="1"></path><path fill="none" stroke="#e6e6e6" stroke-width="1" class="highcharts-grid-line" d="M 53 235.5 L 305 235.5" opacity="1"></path><path fill="none" stroke="#e6e6e6" stroke-width="1" class="highcharts-grid-line" d="M 53 203.5 L 305 203.5" opacity="1"></path><path fill="none" stroke="#e6e6e6" stroke-width="1" class="highcharts-grid-line" d="M 53 170.5 L 305 170.5" opacity="1"></path><path fill="none" stroke="#e6e6e6" stroke-width="1" class="highcharts-grid-line" d="M 53 138.5 L 305 138.5" opacity="1"></path><path fill="none" stroke="#e6e6e6" stroke-width="1" class="highcharts-grid-line" d="M 53 106.5 L 305 106.5" opacity="1"></path><path fill="none" stroke="#e6e6e6" stroke-width="1" class="highcharts-grid-line" d="M 53 73.5 L 305 73.5" opacity="1"></path><path fill="none" stroke="#e6e6e6" stroke-width="1" class="highcharts-grid-line" d="M 53 40.5 L 305 40.5" opacity="1"></path></g><rect fill="none" class="highcharts-plot-border" x="53" y="41" width="252" height="323"></rect><g class="highcharts-axis highcharts-xaxis "><path fill="none" class="highcharts-tick" stroke="#FFFFFF" stroke-width="1" d="M 102.5 364 L 102.5 374" opacity="1"></path><path fill="none" class="highcharts-tick" stroke="#FFFFFF" stroke-width="1" d="M 153.5 364 L 153.5 374" opacity="1"></path><path fill="none" class="highcharts-tick" stroke="#FFFFFF" stroke-width="1" d="M 203.5 364 L 203.5 374" opacity="1"></path><path fill="none" class="highcharts-tick" stroke="#FFFFFF" stroke-width="1" d="M 254.5 364 L 254.5 374" opacity="1"></path><path fill="none" class="highcharts-tick" stroke="#FFFFFF" stroke-width="1" d="M 305.5 364 L 305.5 374" opacity="1"></path><path fill="none" class="highcharts-tick" stroke="#FFFFFF" stroke-width="1" d="M 52.5 364 L 52.5 374" opacity="1"></path><path fill="none" class="highcharts-axis-line" stroke="#ccd6eb" stroke-width="1" d="M 53 364.5 L 305 364.5"></path></g><g class="highcharts-axis highcharts-yaxis "><path fill="none" class="highcharts-axis-line" d="M 53 41 L 53 364"></path></g><g class="highcharts-series-group"><g class="highcharts-series highcharts-series-0 highcharts-column-series highcharts-color-undefined highcharts-tracker" transform="translate(53,41) scale(1 1)" clip-path="url(#highcharts-fow7jlo-1)"><rect x="12.5" y="-0.5" width="25" height="155" fill="#2f656b" class="highcharts-point" stroke="#ffffff" stroke-width="1"></rect><rect x="63.5" y="-0.5" width="25" height="156" fill="#2f656b" class="highcharts-point" stroke="#ffffff" stroke-width="1"></rect><rect x="113.5" y="-0.5" width="25" height="156" fill="#2f656b" class="highcharts-point" stroke="#ffffff" stroke-width="1"></rect><rect x="163.5" y="-0.5" width="25" height="154" fill="#2f656b" class="highcharts-point" stroke="#ffffff" stroke-width="1"></rect><rect x="214.5" y="-0.5" width="25" height="152" fill="#2f656b" class="highcharts-point" stroke="#ffffff" stroke-width="1"></rect></g><g class="highcharts-markers highcharts-series-0 highcharts-column-series highcharts-color-undefined " transform="translate(53,41) scale(1 1)" clip-path="none"></g><g class="highcharts-series highcharts-series-1 highcharts-column-series highcharts-color-undefined highcharts-tracker" transform="translate(53,41) scale(1 1)" clip-path="url(#highcharts-fow7jlo-1)"><rect x="12.5" y="154.5" width="25" height="134" fill="#73b97c" class="highcharts-point" stroke="#ffffff" stroke-width="1"></rect><rect x="63.5" y="155.5" width="25" height="129" fill="#73b97c" class="highcharts-point" stroke="#ffffff" stroke-width="1"></rect><rect x="113.5" y="155.5" width="25" height="132" fill="#73b97c" class="highcharts-point" stroke="#ffffff" stroke-width="1"></rect><rect x="163.5" y="153.5" width="25" height="129" fill="#73b97c" class="highcharts-point" stroke="#ffffff" stroke-width="1"></rect><rect x="214.5" y="151.5" width="25" height="126" fill="#73b97c" class="highcharts-point" stroke="#ffffff" stroke-width="1"></rect></g><g class="highcharts-markers highcharts-series-1 highcharts-column-series highcharts-color-undefined " transform="translate(53,41) scale(1 1)" clip-path="none"></g><g class="highcharts-series highcharts-series-2 highcharts-column-series highcharts-color-undefined highcharts-tracker" transform="translate(53,41) scale(1 1)" clip-path="url(#highcharts-fow7jlo-1)"><rect x="12.5" y="288.5" width="25" height="35" fill="#cd9c00" class="highcharts-point" stroke="#ffffff" stroke-width="1"></rect><rect x="63.5" y="284.5" width="25" height="39" fill="#cd9c00" class="highcharts-point" stroke="#ffffff" stroke-width="1"></rect><rect x="113.5" y="287.5" width="25" height="36" fill="#cd9c00" class="highcharts-point" stroke="#ffffff" stroke-width="1"></rect><rect x="163.5" y="282.5" width="25" height="41" fill="#cd9c00" class="highcharts-point" stroke="#ffffff" stroke-width="1"></rect><rect x="214.5" y="277.5" width="25" height="46" fill="#cd9c00" class="highcharts-point" stroke="#ffffff" stroke-width="1"></rect></g><g class="highcharts-markers highcharts-series-2 highcharts-column-series highcharts-color-undefined " transform="translate(53,41) scale(1 1)" clip-path="none"></g></g><text x="10" text-anchor="start" class="highcharts-title" style="color:#000000;font-size:14px;font-weight:bold;fill:#000000;" y="21"><tspan>I.01.2.0001 Haushalte nach Art des Haushalts</tspan></text><g class="highcharts-legend" transform="translate(317,164)"><rect fill="none" class="highcharts-legend-box" rx="0" ry="0" x="0" y="0" width="157" height="68" visibility="visible"></rect><g><g><g class="highcharts-legend-item highcharts-column-series highcharts-color-undefined highcharts-series-0" transform="translate(8,3)"><text x="21" style="color:#333333;font-size:12px;font-weight:normal;cursor:pointer;fill:#333333;" text-anchor="start" y="15">Einpersonenhaushalte</text><rect x="2" y="4" width="12" height="12" fill="#2f656b" class="highcharts-point"></rect></g><g class="highcharts-legend-item highcharts-column-series highcharts-color-undefined highcharts-series-1" transform="translate(8,22)"><text x="21" y="15" style="color:#333333;font-size:12px;font-weight:normal;cursor:pointer;fill:#333333;" text-anchor="start">Familienhaushalte</text><rect x="2" y="4" width="12" height="12" fill="#73b97c" class="highcharts-point"></rect></g><g class="highcharts-legend-item highcharts-column-series highcharts-color-undefined highcharts-series-2" transform="translate(8,41)"><text x="21" y="15" style="color:#333333;font-size:12px;font-weight:normal;cursor:pointer;fill:#333333;" text-anchor="start">Nichtfamilienhaushalte</text><rect x="2" y="4" width="12" height="12" fill="#cd9c00" class="highcharts-point"></rect></g></g></g></g><g class="highcharts-axis-labels highcharts-xaxis-labels "><text x="78.2" style="color:#000000;cursor:default;font-size:11px;fill:#000000;" text-anchor="middle" transform="translate(0,0)" y="383" opacity="1">2011</text><text x="128.60000000000002" style="color:#000000;cursor:default;font-size:11px;fill:#000000;" text-anchor="middle" transform="translate(0,0)" y="383" opacity="1">2012</text><text x="179" style="color:#000000;cursor:default;font-size:11px;fill:#000000;" text-anchor="middle" transform="translate(0,0)" y="383" opacity="1">2013</text><text x="229.4" style="color:#000000;cursor:default;font-size:11px;fill:#000000;" text-anchor="middle" transform="translate(0,0)" y="383" opacity="1">2014</text><text x="279.8" style="color:#000000;cursor:default;font-size:11px;fill:#000000;" text-anchor="middle" transform="translate(0,0)" y="383" opacity="1">2015</text></g><g class="highcharts-axis-labels highcharts-yaxis-labels "><text x="38" style="color:#000000;cursor:default;font-size:11px;fill:#000000;" text-anchor="end" transform="translate(0,0)" y="369" opacity="1"><tspan>0%</tspan></text><text x="38" style="color:#000000;cursor:default;font-size:11px;fill:#000000;" text-anchor="end" transform="translate(0,0)" y="336" opacity="1"><tspan>10%</tspan></text><text x="38" style="color:#000000;cursor:default;font-size:11px;fill:#000000;" text-anchor="end" transform="translate(0,0)" y="304" opacity="1"><tspan>20%</tspan></text><text x="38" style="color:#000000;cursor:default;font-size:11px;fill:#000000;" text-anchor="end" transform="translate(0,0)" y="272" opacity="1"><tspan>30%</tspan></text><text x="38" style="color:#000000;cursor:default;font-size:11px;fill:#000000;" text-anchor="end" transform="translate(0,0)" y="239" opacity="1"><tspan>40%</tspan></text><text x="38" style="color:#000000;cursor:default;font-size:11px;fill:#000000;" text-anchor="end" transform="translate(0,0)" y="207" opacity="1"><tspan>50%</tspan></text><text x="38" style="color:#000000;cursor:default;font-size:11px;fill:#000000;" text-anchor="end" transform="translate(0,0)" y="175" opacity="1"><tspan>60%</tspan></text><text x="38" style="color:#000000;cursor:default;font-size:11px;fill:#000000;" text-anchor="end" transform="translate(0,0)" y="142" opacity="1"><tspan>70%</tspan></text><text x="38" style="color:#000000;cursor:default;font-size:11px;fill:#000000;" text-anchor="end" transform="translate(0,0)" y="110" opacity="1"><tspan>80%</tspan></text><text x="38" style="color:#000000;cursor:default;font-size:11px;fill:#000000;" text-anchor="end" transform="translate(0,0)" y="78" opacity="1"><tspan>90%</tspan></text><text x="38" style="color:#000000;cursor:default;font-size:11px;fill:#000000;" text-anchor="end" transform="translate(0,0)" y="46" opacity="1"><tspan>100%</tspan></text></g><text x="10" class="highcharts-credits" text-anchor="start" style="cursor:default;color:#000000;font-size:10px;fill:#000000;" y="400"><tspan>Quelle: Statistisches Amt Basel-Stadt, kantonale Bevölkerungsstatistik</tspan></text></svg>

<svg class="highcharts-root" xmlns="http://www.w3.org/2000/svg" viewBox="0 0 485 415" font-family="Arial" font-size="12">
    <defs>
        <clipPath id="a">
            <path fill="none" d="M0 0h252v323H0z"/>
        </clipPath>
    </defs>
    <rect fill="#fbfbfb" class="highcharts-background" width="485" height="415" rx="0" ry="0"/>
    <path fill="none" class="highcharts-plot-background" d="M53 41h252v323H53z"/>
    <g class="highcharts-grid highcharts-xaxis-grid">
        <path fill="none" class="highcharts-grid-line" d="M102.5 41v323m51-323v323m50-323v323m51-323v323m50-323v323M52.5 41v323"/>
    </g>
    <g class="highcharts-grid highcharts-yaxis-grid">
        <path fill="none" stroke="#e6e6e6" class="highcharts-grid-line" d="M53 364.5h252m-252-32h252m-252-33h252m-252-32h252m-252-32h252m-252-32h252m-252-33h252m-252-32h252m-252-32h252m-252-33h252m-252-33h252"/>
    </g>
    <path fill="none" class="highcharts-plot-border" d="M53 41h252v323H53z"/>
    <g class="highcharts-axis highcharts-xaxis">
        <path fill="none" class="highcharts-tick" stroke="#FFF" d="M102.5 364v10m51-10v10m50-10v10m51-10v10m51-10v10m-253-10v10"/>
        <path fill="none" class="highcharts-axis-line" stroke="#ccd6eb" d="M53 364.5h252"/>
    </g>
    <g class="highcharts-axis highcharts-yaxis">
        <path fill="none" class="highcharts-axis-line" d="M53 41v323"/>
    </g>
    <g class="highcharts-series-group">
        <g class="highcharts-series highcharts-series-0 highcharts-column-series highcharts-color-undefined highcharts-tracker" transform="translate(53 41)" clip-path="url(#a)">
            <path fill="#2f656b" class="highcharts-point" stroke="#fff" d="M12.5-.5h25v155h-25zm51 0h25v156h-25zm50 0h25v156h-25zm50 0h25v154h-25zm51 0h25v152h-25z"/>
        </g>
        <g class="highcharts-series highcharts-series-1 highcharts-column-series highcharts-color-undefined highcharts-tracker" transform="translate(53 41)" clip-path="url(#a)">
            <path fill="#73b97c" class="highcharts-point" stroke="#fff" d="M12.5 154.5h25v134h-25zm51 1h25v129h-25zm50 0h25v132h-25zm50-2h25v129h-25zm51-2h25v126h-25z"/>
        </g>
        <g class="highcharts-series highcharts-series-2 highcharts-column-series highcharts-color-undefined highcharts-tracker" transform="translate(53 41)" clip-path="url(#a)">
            <path fill="#cd9c00" class="highcharts-point" stroke="#fff" d="M12.5 288.5h25v35h-25zm51-4h25v39h-25zm50 3h25v36h-25zm50-5h25v41h-25zm51-5h25v46h-25z"/>
        </g>
    </g>
    <text x="10" class="highcharts-title" y="21" color="#000" font-size="14" font-weight="700">
        <tspan>I.01.2.0001 Haushalte nach Art des Haushalts</tspan>
    </text>
    <g class="highcharts-legend" transform="translate(317 164)">
        <rect fill="none" class="highcharts-legend-box" rx="0" ry="0" width="157" height="68"/>
        <g class="highcharts-legend-item highcharts-column-series highcharts-color-undefined highcharts-series-0">
            <text x="21" y="15" color="#333" font-weight="400" cursor="pointer" fill="#333" transform="translate(8 3)">
                Einpersonenhaushalte
            </text>
            <path fill="#2f656b" class="highcharts-point" d="M10 7h12v12H10z"/>
        </g>
        <g class="highcharts-legend-item highcharts-column-series highcharts-color-undefined highcharts-series-1">
            <text x="21" y="15" color="#333" font-weight="400" cursor="pointer" fill="#333" transform="translate(8 22)">
                Familienhaushalte
            </text>
            <path fill="#73b97c" class="highcharts-point" d="M10 26h12v12H10z"/>
        </g>
        <g class="highcharts-legend-item highcharts-column-series highcharts-color-undefined highcharts-series-2">
            <text x="21" y="15" color="#333" font-weight="400" cursor="pointer" fill="#333" transform="translate(8 41)">
                Nichtfamilienhaushalte
            </text>
            <path fill="#cd9c00" class="highcharts-point" d="M10 45h12v12H10z"/>
        </g>
    </g>
    <g class="highcharts-axis-labels highcharts-xaxis-labels" text-anchor="middle" color="#000" cursor="default" font-size="11">
        <text x="78.2" y="383">
            2011
        </text>
        <text x="128.6" y="383">
            2012
        </text>
        <text x="179" y="383">
            2013
        </text>
        <text x="229.4" y="383">
            2014
        </text>
        <text x="279.8" y="383">
            2015
        </text>
    </g>
    <g class="highcharts-axis-labels highcharts-yaxis-labels" text-anchor="end" color="#000" cursor="default" font-size="11">
        <text x="38" y="369">
            <tspan>0%</tspan>
        </text>
        <text x="38" y="336">
            <tspan>10%</tspan>
        </text>
        <text x="38" y="304">
            <tspan>20%</tspan>
        </text>
        <text x="38" y="272">
            <tspan>30%</tspan>
        </text>
        <text x="38" y="239">
            <tspan>40%</tspan>
        </text>
        <text x="38" y="207">
            <tspan>50%</tspan>
        </text>
        <text x="38" y="175">
            <tspan>60%</tspan>
        </text>
        <text x="38" y="142">
            <tspan>70%</tspan>
        </text>
        <text x="38" y="110">
            <tspan>80%</tspan>
        </text>
        <text x="38" y="78">
            <tspan>90%</tspan>
        </text>
        <text x="38" y="46">
            <tspan>100%</tspan>
        </text>
    </g>
    <text x="10" class="highcharts-credits" y="400" cursor="default" color="#000" font-size="10">
        <tspan>Quelle: Statistisches Amt Basel-Stadt, kantonale Bevölkerungsstatistik</tspan>
    </text>
</svg>
